X: 783
T: Missa Memor esto Hosanna Benedictus
C: Giovanni Perluigi da Palestrina
L: 1/4
M: 4/2
N: Derived from Benedictus_84_b.krn
Q: "Benedictus"
V: 1 clef=treble
V: 2 clef=treble
V: 3 clef=treble-8
V: 4 clef=treble-8
V: 5 clef=bass
K: F
[V:1] d4_e4- | 
[V:2] z4G4 | 
[V:3] z4c4 | 
[V:4] z8 | 
[V:5] z8 | 
[V:1] e2d2B2c2 | 
[V:2] B6A2 | 
[V:3] g6f2 | 
[V:4] z8 | 
[V:5] z8 | 
[V:1] d2c4B2 | 
[V:2] F2G2A2G2- | 
[V:3] d2e2f2g2 | 
[V:4] z8 | 
[V:5] z8 | 
[V:1] A4z2G2 | 
[V:2] G2^F2G4- | 
[V:3] d4c4 | 
[V:4] z2d2_e4- | 
[V:5] z4C,4 | 
[V:1] B6A2 | 
[V:2] G4z4 | 
[V:3] B2>c2def2- | 
[V:4] e2d2B2c2 | 
[V:5] G,6F,2 | 
[V:1] F2G2A2G2- | 
[V:2] z8 | 
[V:3] f2e2d4 | 
[V:4] d2c4B2 | 
[V:5] D,2E,2F,2G,2 | 
[V:1] G2^F2GABc | 
[V:2] A4B4- | 
[V:3] d8 | 
[V:4] A4G2d2- | 
[V:5] D,4z2G,2- | 
[V:1] d4z4 | 
[V:2] B2A2F2G2 | 
[V:3] z8 | 
[V:4] d2f4e2 | 
[V:5] G,2D4C2 | 
[V:1] z8 | 
[V:2] A2G4F2 | 
[V:3] z8 | 
[V:4] c2d2e2d2- | 
[V:5] A,2B,2C2D2 | 
[V:1] e4f3e | 
[V:2] E4D3E | 
[V:3] z2A4B2- | 
[V:4] d2^c2z2d2- | 
[V:5] A,4D,4 | 
[V:1] d2c2d2e2- | 
[V:2] FGA4B2 | 
[V:3] B2A2F2G2 | 
[V:4] d2f4e2 | 
[V:5] z8 | 
[V:1] e2d4^c2 | 
[V:2] A4z2A2- | 
[V:3] A8 | 
[V:4] c2d2e4 | 
[V:5] z8 | 
[V:1] d4B4 | 
[V:2] A2B2>A2G2- | 
[V:3] d4G4 | 
[V:4] f4g4 | 
[V:5] D,4_E,4- | 
[V:1] G2d2>B2_e2 | 
[V:2] G2F2G2A2- | 
[V:3] B6A2 | 
[V:4] z2d4cB | 
[V:5] E,2D,2B,,2C,2 | 
[V:1] d8 | 
[V:2] A2G4F2 | 
[V:3] ^F2G2A4 | 
[V:4] A2d2d4 | 
[V:5] D,8 | 
[V:1] =B8 |]  
[V:2] G8 |]  
[V:3] G8 |]  
[V:4] d8 |]  
[V:5] G,8 |]  

